Simply-Orange-Circles/scalable/apps/kphotoalbum.svg

<svg xmlns="http://www.w3.org/2000/svg" width="48" height="48" viewBox="0 0 12.7 12.7"><path d="M6.35.083A6.267 6.267 0 0 0 .084 6.35a6.267 6.267 0 0 0 6.268 6.267 6.267 6.267 0 0 0 6.266-6.267A6.267 6.267 0 0 0 6.351.083zm-.017.932a5.388 5.388 0 0 1 5.388 5.39 5.388 5.388 0 0 1-5.388 5.387 5.388 5.388 0 0 1-5.39-5.388 5.388 5.388 0 0 1 5.39-5.389zM3.175 2.977a.198.198 0 0 0-.198.198v.273a.966.966 0 0 0-.596.894v4.413c0 .537.432.968.969.968h6a.966.966 0 0 0 .969-.968V4.342a.966.966 0 0 0-.969-.969H4.366v-.198a.198.198 0 0 0-.199-.198h-.992zm6.152.992a.397.397 0 0 1 .396.397.397.397 0 0 1-.396.396.397.397 0 0 1-.397-.396.397.397 0 0 1 .397-.397zm-2.977.8a2.183 2.183 0 0 1 2.183 2.183A2.183 2.183 0 0 1 6.35 9.135a2.183 2.183 0 0 1-2.183-2.183A2.183 2.183 0 0 1 6.35 4.769zm0 .336a1.847 1.847 0 0 0-1.847 1.847A1.847 1.847 0 0 0 6.35 8.799a1.847 1.847 0 0 0 1.847-1.847A1.847 1.847 0 0 0 6.35 5.105zm0 .64a1.206 1.206 0 0 1 1.206 1.207A1.206 1.206 0 0 1 6.35 8.158a1.206 1.206 0 0 1-1.206-1.206A1.206 1.206 0 0 1 6.35 5.746z" fill="#ff7f2a"/></svg>

<?xml version="1.0" encoding="UTF-8" standalone="no"?>
<svg
   xmlns:dc="http://purl.org/dc/elements/1.1/"
   xmlns:cc="http://creativecommons.org/ns#"
   xmlns:rdf="http://www.w3.org/1999/02/22-rdf-syntax-ns#"
   xmlns:svg="http://www.w3.org/2000/svg"
   xmlns="http://www.w3.org/2000/svg"
   xmlns:sodipodi="http://sodipodi.sourceforge.net/DTD/sodipodi-0.dtd"
   xmlns:inkscape="http://www.inkscape.org/namespaces/inkscape"
   width="48"
   height="48"
   viewBox="0 0 12.7 12.7"
   version="1.1"
   id="svg4"
   sodipodi:docname="kphotoalbum.svg"
   inkscape:version="0.92.4 (5da689c313, 2019-01-14)">
  <metadata
     id="metadata10">
    <rdf:RDF>
      <cc:Work
         rdf:about="">
        <dc:format>image/svg+xml</dc:format>
        <dc:type
           rdf:resource="http://purl.org/dc/dcmitype/StillImage" />
        <dc:title></dc:title>
      </cc:Work>
    </rdf:RDF>
  </metadata>
  <defs
     id="defs8" />
  <sodipodi:namedview
     pagecolor="#ffffff"
     bordercolor="#666666"
     borderopacity="1"
     objecttolerance="10"
     gridtolerance="10"
     guidetolerance="10"
     inkscape:pageopacity="0"
     inkscape:pageshadow="2"
     inkscape:window-width="1087"
     inkscape:window-height="480"
     id="namedview6"
     showgrid="false"
     inkscape:zoom="4.9166667"
     inkscape:cx="2.1355932"
     inkscape:cy="24"
     inkscape:window-x="0"
     inkscape:window-y="25"
     inkscape:window-maximized="0"
     inkscape:current-layer="svg4" />
  <path
     d="M 6.35,0.083 A 6.267,6.267 0 0 0 0.084,6.35 6.267,6.267 0 0 0 6.352,12.617 6.267,6.267 0 0 0 12.618,6.35 6.267,6.267 0 0 0 6.351,0.083 Z M 6.333,1.015 a 5.388,5.388 0 0 1 5.388,5.39 5.388,5.388 0 0 1 -5.388,5.387 5.388,5.388 0 0 1 -5.39,-5.388 5.388,5.388 0 0 1 5.39,-5.389 z M 3.175,2.977 A 0.198,0.198 0 0 0 2.977,3.175 V 3.448 A 0.966,0.966 0 0 0 2.381,4.342 v 4.413 c 0,0.537 0.432,0.968 0.969,0.968 h 6 A 0.966,0.966 0 0 0 10.319,8.755 V 4.342 A 0.966,0.966 0 0 0 9.35,3.373 H 4.366 V 3.175 A 0.198,0.198 0 0 0 4.167,2.977 Z M 9.327,3.969 A 0.397,0.397 0 0 1 9.723,4.366 0.397,0.397 0 0 1 9.327,4.762 0.397,0.397 0 0 1 8.93,4.366 0.397,0.397 0 0 1 9.327,3.969 Z M 6.35,4.769 A 2.183,2.183 0 0 1 8.533,6.952 2.183,2.183 0 0 1 6.35,9.135 2.183,2.183 0 0 1 4.167,6.952 2.183,2.183 0 0 1 6.35,4.769 Z m 0,0.336 A 1.847,1.847 0 0 0 4.503,6.952 1.847,1.847 0 0 0 6.35,8.799 1.847,1.847 0 0 0 8.197,6.952 1.847,1.847 0 0 0 6.35,5.105 Z m 0,0.64 A 1.206,1.206 0 0 1 7.556,6.952 1.206,1.206 0 0 1 6.35,8.158 1.206,1.206 0 0 1 5.144,6.952 1.206,1.206 0 0 1 6.35,5.746 Z"
     id="path2"
     inkscape:connector-curvature="0"
     style="fill:#ff7f2a" />
</svg>
